!!!!SEGMENT: pl-wnifc--6782-n--001-003_ostrowski-jan--w-zakopanem-op-27-mazur-3.krn
!!!cenid: 18xx:4048
!!!COM: Ostrowski, Jan
!!!COM-rismID: pe50048393
!!!CDT: 1853-1899/02/16
!!!CNT: Polish
!!!GTL: W Zakopanem op. 27
!!!OTL: Mazur 3.
!!!OMV: 003
!!!PDT: 1896
!!!AGN:
!!!YEC: Copyright 2022 Narodowy Instytut Fryderyka Chopina (https://polishscores.org)
!!!YEM: License CC-BY-4.0 (https://creativecommons.org/licenses/by/4.0)
!!!SMS-siglum: PL-Wnifc
!!!SMS-shelfmark: 6782/n
!!!SMS-shelfwork: 001-003 G
!!!SMS-variant:
!!!SMS-altvar:
!!!NIFC-rismSourceID: 1001160429
!!!NIFC-rismChildID: 1001160429
!!!NIFC-islandoraID: nifc:213525
!!!URL-pdf-islandora: https://repozytorium.nifc.pl/islandora/object/nifc%3A213525/datastream/PDF/view
!!!URL-scan: https://polish.musicsources.pl/pl/lokalizacje/galeria/druki-muzyczne/16917-w-zakopanem/4 @EN{Scan on Polish Music Sources Website} @PL{Skany w portalu Dziedzictwo Muzyki Polskiej w otwartym dostępie}
!!!IIIF:
!!!ONB-nifc: UWAGA: w zbiorze 3 Mazury numerowane 001-003
!!!AIN: 1 piano
!!!key: C
**kern	**kern	**dynam
*part1	*part1	*
*staff2	*staff1	*
*>[A,A,B,B,A,C,C]	*>[A,A,B,B,A,C,C]	*
*>A	*>A	*
*I"Fortepian	*I"Fortepian	*
*Ipiano	*Ipiano	*
*ICklav	*ICklav	*
*clefF4	*clefG2	*
*k[]	*k[]	*
*C:	*C:	*
*M3/8	*M3/8	*
=1	=1	=1
*	*^	*
!	!LO:TX:a:t=Mazur.	!	!
8CL 8CC^>/	16eeLL 16cc/	[4.g^\	f
.	16eeJJ 16cc/	.	.
8E 8EE^>/	8dd#XL 8b'/	.	.
8GJ 8GG^>/	8eeJ 8cc'/	.	.
=2	=2	=2	=2
8e 8G'\	8gg 8b'/	4.g\]	.
4d 4G^\	4ff 4b^/	.	.
=3	=3	=3	=3
8GL 8GG^\	16ffLL 16dd/	4.g^\	.
.	16ffJJ 16dd/	.	.
8B 8BB^\	8eeL 8cc#X'/	.	.
8dJ 8D^\	8ffJ 8dd'/	.	.
=4	=4	=4	=4
8f 8c'\	8aa'/	8cc\	.
4e 4c^\	4gg^/	4cc\	.
*	*v	*v	*
=5	=5	=5
8E\L	16ccc\LL	p
.	16eee\JJ	.
!	!LO:TUP:a:problem:klamra łukowa	!
8c 8G\	24ccc\LL	.
.	24ddd\	.
.	24ccc\JJ	.
8cJ 8G\	16bb\LL	.
.	16aa\JJ	.
=6	=6	=6
8D\L	4.bb\	.
8f 8d 8G\	.	.
8fJ 8d 8G\	.	.
=7	=7	=7
8GG\L	16aa\LL	.
.	16ccc\JJ	.
!	!LO:TUP:a:problem:klamra łukowa	!
8f 8B 8G\	24aa\LL	.
.	24bb\	.
.	24aa\JJ	.
8fJ 8B 8G\	16ff\LL	.
.	16dd\JJ	.
=8	=8	=8
8C\L	4.gg\	.
8e 8c 8G\	.	.
8eJ 8c 8G\	.	.
!!LO:LB:g=original
=9	=9	=9
*	*^	*
8CL 8CC^>/	16eeLL 16cc/	[4.g^\	f
.	16eeJJ 16cc/	.	.
8E 8EE^>/	8dd#XL 8b'/	.	.
8GJ 8GG^>/	8eeJ 8cc'/	.	.
=10	=10	=10	=10
8e 8G'\	8gg 8b'/	4.g\]	.
4d 4G^\	4ff 4b^/	.	.
=11	=11	=11	=11
8GL 8GG^\	16ffLL 16dd/	4.g^\	.
.	16ffJJ 16dd/	.	.
8B 8BB^\	8eeL 8cc#X'/	.	.
8dJ 8D^\	8ffJ 8dd'/	.	.
=12	=12	=12	=12
8f 8c'\	8aa'/	8cc\	.
4e 4c^\	4gg^/	4cc\	.
*	*v	*v	*
=13	=13	=13
8E\L	16ccc\LL	p
.	16eee\JJ	.
!	!LO:TUP:a:problem:klamra łukowa	!
8c 8G\	24ccc\LL	.
.	24ddd\	.
.	24ccc\JJ	.
8cJ 8G\	16bb\LL	.
.	16aa\JJ	.
=14	=14	=14
8F\L	8.fff^\L	.
8d 8A\	.	.
.	16eee\L	.
8dJ 8A\	16.ddd\	.
.	32ccc\JJk	.
=15	=15	=15
8G\L	16.bb\LL	.
.	32aa\K	.
8f 8d 8B\	16.gg\	.
.	32ff\K	.
8fJ 8d 8B\	16.ee\	.
.	32dd\JJk	.
=16	=16	=16
8eL 8c\	8cc\L	.
8cJ 8C\	8ccc:J 8gg: 8ee: 8cc:\	.
8r	8r	.
!LO:TX:b:i:t=Fine.:rj	!	!
!!LO:LB:g=original
=17:|!|:	=17:|!|:	=17:|!|:
*>B	*>B	*
!	!	!LO:DY:t=f fuoco
8dL 8B 8G'\	8.ddd^\L	f
8d 8B 8G'\	.	.
.	16eee\L	.
8dJ 8B 8G'\	16.ddd\	.
.	32eee\JJk	.
=18	=18	=18
8dL 8B 8G'\	16.ddd\LL	.
.	32ccc#X\K	.
8d 8B 8G'\	16.ddd\	.
.	32eee\K	.
8dJ 8B 8G'\	16.ddd\	.
.	32bb\JJk	.
=19	=19	=19
8dL 8c 8A 8G'\	16.cccn\LL	.
.	32bb\K	.
8d 8c 8A 8G'\	16.ccc\	.
.	32ddd\K	.
8dJ 8c 8A 8G'\	16.ccc\	.
.	32aa\JJk	.
=20	=20	=20
8dL 8B 8G'\	16bb\LL	.
.	16ccc\JJ	.
8d 8B 8G'\	8bb'\L	.
8dJ 8B 8G'\	8gg^\J	.
=21	=21	=21
8dL 8B 8G'\	8.ddd^\L	.
8d 8B 8G'\	.	.
.	16eee\L	.
8dJ 8B 8G'\	16.ddd\	.
.	32eee\JJk	.
=22	=22	=22
8dL 8B 8G'\	16.ddd\LL	.
.	32ccc#X\K	.
8d 8B 8G'\	16.ddd\	.
.	32eee\K	.
8dJ 8B 8G'\	16.ddd\	.
.	32bb\JJk	.
=23	=23	=23
8dL 8c 8A 8G'\	16.ccc\LL	.
.	32bb\K	.
8d 8c 8A 8G'\	16.ccc\	.
.	32ddd\K	.
8dJ 8c 8A 8G'\	16.ccc\	.
.	32aa\JJk	.
=24	=24	=24
8BL 8G'\	8gg\L	.
8BJ 8G'\	8ggg:J 8ddd: 8bb: 8gg:\	.
8r	8r	.
!LO:TX:b:i:t=Mazur D.C. al Fine.:rj	!	!
!!LO:LB:g=original
=25:|!	=25:|!	=25:|!
!!!key: F
*>C	*>C	*
*k[b-]	*k[b-]	*
!	!LO:TX:a:t=Trio.	!
4F^\	4f^>/	f
8C/	8c/	.
=26	=26	=26
16F\LL	16f/LL	.
16G\JJ	16g/JJ	.
8F'\L	8f'/L	.
8C'\J	8c'/J	.
=27	=27	=27
16F\LL	16f/LL	.
16C\	16c/	.
16AA\	16A/	.
16C\	16c/	.
16F\	16f/	.
16A\JJ	16a/JJ	.
=28	=28	=28
8G'\	8g'/	.
4c^^\	4cc^^\	.
=29||	=29||	=29||
*^	*^	*
*	*	*	*^	*
*	*	*	*	*cue	*
!	!	!LO:TX:b:t=Tromp.	!	!	!
4.B-/	8B-\L	4.cc^^/	16cc\LL	[<4.c^\ 4.cc	p
.	.	.	16ee\JJ	.	.
!	!	!LO:TX:b:i:t=amoroso	!	!	!
.	8c\ 8e	.	8gg'>\L	.	.
.	8c\J 8e	.	8gg'>M>\J	.	.
*	*	*	*	*Xcue	*
*	*	*	*v	*v	*
=30	=30	=30	=30	=30
*	*	*	*cue	*
4.A/	8A\L	4ff^\	4.c\_ 4.cc	.
.	8c\ 8f	.	.	.
.	8c\J 8f	8dd\	.	.
=31	=31	=31	=31	=31
4.G/	8G\L	16cc\LL	4.c\_ 4.cc	.
.	.	16dd\JJ	.	.
.	8B-\ 8c 8e	8ccM\L	.	.
.	8B-\J 8c 8e	(16g\L	.	.
.	.	16dd\JJ)	.	.
!!LO:LB:g=original
=32	=32	=32	=32	=32
4.F/	8F\L	4cc^\	4.c\] 4.cc	.
.	8A\ 8c 8f	.	.	.
.	8A\J 8c 8f	8a/	.	.
*	*	*	*Xcue	*
*v	*v	*	*	*
*	*v	*v	*
=33	=33	=33
8E\L	16.cc\LL	.
.	32ee\K	.
8e 8c 8B-\	16.gg\	.
.	32ff#X\K	.
8eJ 8c 8B-\	16.gg\	.
.	32aa\JJk	.
=34	=34	=34
*^	*	*
!LO:TX:b:t=Orchester Basso.	!	!	!
4D/	8D\L	16.ff\LL	.
.	.	32gg\K	.
.	8f 8d 8A\	16.ff\	.
.	.	32ee\K	.
*cue	*	*	*
8BB-\	8fJ 8d 8B-\	16.ff\	.
.	.	32dd\JJk	.
*Xcue	*	*	*
=35	=35	=35	=35
8C\L	8ryy	16.cc\LL	.
.	.	32dd\K	.
8e 8c 8B-\	8r	16.cc\	.
.	.	32g\K	.
*	*cue	*	*
8eJ 8c 8B-\	8C\	16.b-\	.
.	.	32a\JJk	.
*	*Xcue	*	*
*v	*v	*	*
=36	=36	=36
8fL 8c 8A 8F\	8f'\L	.
8fJ 8c 8A 8F\	8ff:J 8cc: 8a':\	.
8r	8r	.
!LO:TX:b:i:t=Introduzione e Mazur 1.\n    da Capo al Fine.	!	!
=:|!	=:|!	=:|!
*-	*-	*-
!!!system-decoration: {(*)}
!!!RDF**kern: > = above
!!!RDF**kern: < = below
!!!ENC: Filip Voros
!!!END: 2022-08-14
!!!ENC: Andrzej Kubiczek
!!!END: 2022-09-16
